svg/24/logo-adobe-indesign.svg

<svg width="24" height="24" viewBox="0 0 24 24" fill="currentColor" xmlns="http://www.w3.org/2000/svg"><path d="M14.6772 10.9232V14.3078C14.5926 14.3386 14.5002 14.354 14.4002 14.3463C14.3002 14.354 14.1926 14.3616 14.0772 14.3616C13.8618 14.3616 13.6464 14.3309 13.4387 14.2616C13.2387 14.2001 13.0618 14.0924 12.9156 13.954C12.7618 13.8001 12.6464 13.6155 12.5695 13.4078C12.4772 13.154 12.431 12.8847 12.4387 12.6155C12.4387 12.2155 12.5233 11.8847 12.6926 11.6386C12.8618 11.3924 13.0849 11.2001 13.3464 11.0693C13.6156 10.9309 13.9156 10.8693 14.2156 10.8693C14.3002 10.8693 14.3849 10.877 14.4695 10.8847C14.5387 10.8924 14.6079 10.9078 14.6772 10.9232Z"/><path fill-rule="evenodd" clip-rule="evenodd" d="M6.03876 3H17.9618C19.7695 3 21.2311 4.46154 21.2311 6.26923V17.7308C21.2311 19.5385 19.7695 21 17.9618 21H6.03876C4.23107 21 2.76953 19.5385 2.76953 17.7308V6.26923C2.76953 4.46154 4.23107 3 6.03876 3ZM9.4771 7.70761V15.6307C9.4771 15.7153 9.43864 15.7538 9.36941 15.7538H7.86172C7.79249 15.7538 7.76172 15.7153 7.76172 15.6307V7.70761C7.76172 7.63838 7.80018 7.60761 7.86941 7.60761H9.36941C9.41557 7.59992 9.46172 7.63069 9.46941 7.68454C9.4771 7.69223 9.4771 7.69992 9.4771 7.70761ZM12.2695 15.5001C12.7849 15.7386 13.3541 15.854 13.9233 15.8463C14.3233 15.8463 14.7233 15.8078 15.1079 15.7386C15.5387 15.6617 15.9618 15.5386 16.3618 15.3693C16.4156 15.3463 16.4387 15.3001 16.4387 15.2463C16.4375 15.2261 16.4363 15.2054 16.4351 15.1842C16.4285 15.0679 16.4209 14.9367 16.4079 14.8001C16.4072 14.7846 16.4065 14.7692 16.4058 14.754C16.3989 14.6028 16.3926 14.4644 16.3926 14.3386V7.00011C16.3849 6.96934 16.3541 6.93857 16.3156 6.94626H14.7541C14.7002 6.94626 14.6772 6.97703 14.6772 7.03088V9.46165C14.6345 9.45809 14.595 9.45618 14.5582 9.45439C14.5153 9.45231 14.4759 9.4504 14.4387 9.44626C14.3695 9.43857 14.3156 9.43857 14.2772 9.43857C13.5156 9.43857 12.8695 9.58473 12.331 9.88473C11.8233 10.1616 11.4002 10.577 11.1079 11.077C10.8233 11.5693 10.6772 12.1309 10.6849 12.7001C10.6849 13.4001 10.8233 13.9847 11.1079 14.454C11.3849 14.9078 11.7849 15.277 12.2695 15.5001Z"/></svg>

<svg xmlns="http://www.w3.org/2000/svg" width="24" height="24" fill="currentColor" viewBox="0 0 24 24">
  <path d="M14.677 10.923v3.385a.655.655 0 0 1-.277.038c-.1.008-.207.016-.323.016a2.02 2.02 0 0 1-.638-.1 1.33 1.33 0 0 1-.523-.308 1.504 1.504 0 0 1-.347-.546 2.144 2.144 0 0 1-.13-.792c0-.4.084-.731.254-.977.169-.247.392-.439.653-.57.27-.138.57-.2.87-.2.084 0 .169.008.254.016.069.007.138.023.207.038Z"/>
  <path fill-rule="evenodd" d="M6.039 3h11.923a3.267 3.267 0 0 1 3.27 3.27v11.46a3.267 3.267 0 0 1-3.27 3.27H6.039a3.266 3.266 0 0 1-3.27-3.27V6.27A3.266 3.266 0 0 1 6.04 3Zm3.438 4.708v7.923c0 .084-.038.123-.108.123H7.862c-.07 0-.1-.039-.1-.123V7.708c0-.07.038-.1.107-.1h1.5a.087.087 0 0 1 .1.077c.008.007.008.015.008.023ZM12.27 15.5a3.824 3.824 0 0 0 1.653.346c.4 0 .8-.038 1.185-.107.43-.077.854-.2 1.254-.37.054-.023.077-.069.077-.123l-.004-.062a9.97 9.97 0 0 0-.03-.43 9.436 9.436 0 0 1-.012-.415V7c-.008-.03-.039-.061-.077-.054h-1.562c-.054 0-.077.031-.077.085v2.43l-.119-.007a2.07 2.07 0 0 1-.12-.008c-.069-.007-.122-.007-.16-.007-.762 0-1.409.146-1.947.446a3.16 3.16 0 0 0-1.646 2.815c0 .7.138 1.285.423 1.754A2.68 2.68 0 0 0 12.27 15.5Z" clip-rule="evenodd"/>
</svg>
